LucasHints/Assets.xcassets/glyphs/emotion/surprised.imageset/surprised.svg

<svg enable-background="new 0 0 122.88 122.88" viewBox="0 0 122.88 122.88" xmlns="http://www.w3.org/2000/svg"><path clip-rule="evenodd" d="m45.54 2.11c32.77-8.78 66.45 10.67 75.23 43.43 8.78 32.77-10.67 66.45-43.43 75.23-32.77 8.78-66.45-10.67-75.23-43.43-8.78-32.77 10.66-66.45 43.43-75.23zm-5.06 36.97c-10.13 0-18.35 8.22-18.35 18.35s8.22 18.35 18.35 18.35 18.35-8.22 18.35-18.35-8.21-18.35-18.35-18.35zm41.92 0c10.13 0 18.35 8.22 18.35 18.35s-8.22 18.35-18.35 18.35-18.35-8.22-18.35-18.35 8.21-18.35 18.35-18.35z" fill="#fbd433" fill-rule="evenodd"/><path d="m107.29 37.21c1.55 1.25 1.8 3.52.55 5.07s-3.52 1.8-5.07.55c-3.48-2.8-7.03-5.21-10.96-6.95-3.87-1.71-8.13-2.8-13.1-3.01-1.99-.08-3.54-1.75-3.46-3.74s1.75-3.54 3.74-3.46c5.98.25 11.1 1.55 15.73 3.6 4.57 2.03 8.63 4.77 12.57 7.94zm-61.3 62.71c-2.46 0-4.45-1.99-4.45-4.45s1.99-4.45 4.45-4.45h30.9c2.46 0 4.45 1.99 4.45 4.45s-1.99 4.45-4.45 4.45zm-5.51-50.17c-4.24 0-7.68 3.44-7.68 7.68s3.44 7.68 7.68 7.68 7.68-3.44 7.68-7.68-3.44-7.68-7.68-7.68zm41.92 0c4.24 0 7.68 3.44 7.68 7.68s-3.44 7.68-7.68 7.68-7.68-3.44-7.68-7.68 3.44-7.68 7.68-7.68zm-62.29-6.91c-1.55 1.25-3.82 1-5.07-.55s-1-3.82.55-5.07c3.94-3.17 8-5.91 12.57-7.94 4.63-2.05 9.74-3.35 15.73-3.6 1.99-.08 3.67 1.47 3.74 3.46.08 1.99-1.47 3.67-3.46 3.74-4.97.21-9.23 1.29-13.1 3.01-3.92 1.74-7.48 4.14-10.96 6.95z" fill="#141518"/></svg>

<?xml version="1.0" encoding="utf-8"?><svg version="1.1" id="Layer_1" xmlns="http://www.w3.org/2000/svg" xmlns:xlink="http://www.w3.org/1999/xlink" x="0px" y="0px" viewBox="0 0 122.88 122.88" style="enable-background:new 0 0 122.88 122.88" xml:space="preserve"><style type="text/css">.st0{fill-rule:evenodd;clip-rule:evenodd;fill:#FBD433;} .st1{fill:#141518;}</style><g><path class="st0" d="M45.54,2.11c32.77-8.78,66.45,10.67,75.23,43.43c8.78,32.77-10.67,66.45-43.43,75.23 c-32.77,8.78-66.45-10.67-75.23-43.43C-6.67,44.57,12.77,10.89,45.54,2.11L45.54,2.11z M40.48,39.08 c-10.13,0-18.35,8.22-18.35,18.35c0,10.13,8.22,18.35,18.35,18.35c10.13,0,18.35-8.22,18.35-18.35 C58.83,47.3,50.62,39.08,40.48,39.08L40.48,39.08z M82.4,39.08c10.13,0,18.35,8.22,18.35,18.35c0,10.13-8.22,18.35-18.35,18.35 c-10.13,0-18.35-8.22-18.35-18.35C64.05,47.3,72.26,39.08,82.4,39.08L82.4,39.08z"/><path class="st1" d="M107.29,37.21c1.55,1.25,1.8,3.52,0.55,5.07c-1.25,1.55-3.52,1.8-5.07,0.55c-3.48-2.8-7.03-5.21-10.96-6.95 c-3.87-1.71-8.13-2.8-13.1-3.01c-1.99-0.08-3.54-1.75-3.46-3.74c0.08-1.99,1.75-3.54,3.74-3.46c5.98,0.25,11.1,1.55,15.73,3.6 C99.29,31.3,103.35,34.04,107.29,37.21L107.29,37.21z M45.99,99.92c-2.46,0-4.45-1.99-4.45-4.45s1.99-4.45,4.45-4.45h30.9 c2.46,0,4.45,1.99,4.45,4.45s-1.99,4.45-4.45,4.45H45.99L45.99,99.92z M40.48,49.75c-4.24,0-7.68,3.44-7.68,7.68 s3.44,7.68,7.68,7.68s7.68-3.44,7.68-7.68S44.72,49.75,40.48,49.75L40.48,49.75z M82.4,49.75c4.24,0,7.68,3.44,7.68,7.68 s-3.44,7.68-7.68,7.68c-4.24,0-7.68-3.44-7.68-7.68S78.16,49.75,82.4,49.75L82.4,49.75z M20.11,42.84c-1.55,1.25-3.82,1-5.07-0.55 c-1.25-1.55-1-3.82,0.55-5.07c3.94-3.17,8-5.91,12.57-7.94c4.63-2.05,9.74-3.35,15.73-3.6c1.99-0.08,3.67,1.47,3.74,3.46 c0.08,1.99-1.47,3.67-3.46,3.74c-4.97,0.21-9.23,1.29-13.1,3.01C27.15,37.63,23.59,40.03,20.11,42.84L20.11,42.84z"/></g></svg>
